X:41
T:Tam Glen Dix.41
M:3/4
L:1/8
Q:1/4=120
S:Anon. MS dated 1811, from Dixon collection, Holton le Moor, Lincs.
R:song
C:Burns
N:Possibly a bar missing in the second part
O:England;Lincolnshire;Holton le Moor
Z:vmp.R.Greig 2012 <http://www.village-music-project.org.uk>
K:Bm
fe|d2B2B2|B2> d2 BA|B2d2 e2|f2> e2d2|!
w:M-y heart is a break-ing, de-ar tit-tie, Some coun–sel
d2>e2 de/f/|A4fe|d2B2B2|B2> d2 BA|!
w:un-to m—e c-ome l-en’. To ang-er them a’
B2d2e2|f2>e2 B2|e2>d2 ef|d2B4||!
w:tis a pity But what maun I do w-i’ Tam Glen?
ag|f2a2b2|a2f2e2|d2>e2f2|f2>g2a2|!
w:I’m think-ing wi’ sic’ a braw fal-low, In poor-tith I myght
f2> e2d2|d2>e2f2|f2>g2a2|f2>e2 d2|!
w:a’ fin, What care I rich-es to wall=ow
A4fe|d2B2B2|efB4||
w:If I– mau-na marry Tam Glen
W:%
W:There’s Lowrie the Laird o’ Dummeller-
W:Gude day to you, brute he comes ben;
W:He brags and he blaws o’ his siller,
W:But when will he dance like Tam Glen!
W:%
W:My minnie does constantly deave me,
W:And bids me beware o’ young men;
W:They flatter, she says, to betray me,
W:But wha can think sae o’ Tam Glen!
W:%
W:3
W:My Daddie says, gin I’ll forsake him,
W:He’ll gie me gude hunder marks ten;
W:But, if it’s ordain’d I maun tak’ him,
W:O wha’ will get but Tam Glen?
W:%
W:%
W:Yestreen at the Valentine’s dealing,
W:My heart to my mou’ gied a sten’;
W:For thrice I drew ane without failing,
W:And thrice it was written Tam Glen
W:%
W:4
W:The last Halloween I was waukin
W:My drouk it sark-sleeve, as ye ken,
W:His likeness came up the house staukin,
W:And the very grey breeks o’ Tam Glen!
W:%
W:Come, counsel, dear Tittie, don’t tarry;
W:I’ll gie ye my bonie black hen,
W:Gif ye will advise me to marry
W:The lad I lo’e dearly, Tam Glen.

